X:1
T:Title
%%score ( 1 2 ) ( 3 4 )
L:1/8
Q:1/4=100
M:2/4
K:G
V:1 treble nm="Grand Piano, Soprano"
V:2 treble 
V:3 bass nm="Choir Pad, Alvord, Asa Everett"
V:4 bass 
V:1
 [DG]2 [DG][DG] | [EG]2 [FA]2 | [GB]4 | [GB]2 [GB][GB] | [Gd]2 [Fd]2 | [Gd]4 | [GB]2 [GB][GB] | %7
w: By~Asa~Brooks~Everett~(1828–1875) * *|||||||
 [Gd]2 [Gd]2 | ed dB | [FA]3 [Ac] | [GB]2 [EA]E | [DG]2 [DF]2 | [DG]4- | [DG]4 |] %14
w: |||||||
V:2
 x4 | x4 | x4 | x4 | x4 | x4 | x4 | x4 | G2 G2 | x4 | x4 | x4 | x4 | x4 |] %14
V:3
 [G,B,]2 [G,B,][G,B,] | [E,B,]2 [D,D]2 | [G,D]4 | [G,D]2 [G,D][G,D] | [G,B,]2 [D,A,]2 | [G,B,]4 | %6
 [G,D]2 [G,D][G,D] | [G,B,]2 [G,B,]2 | CB, B,D | [D,D]3 [F,D] | [G,D]2 [C,C]2 | [D,B,]2 [D,A,]2 | %12
 [G,B,]4- | [G,B,]4 |] %14
V:4
 x4 | x4 | x4 | x4 | x4 | x4 | x4 | x4 | G,2 G,2 | x4 | x4 | x4 | x4 | x4 |] %14

